X: 429
T: A Trip To The Cottage
R: jig
M: 6/8
K: Gmajor
B|d(3)dcd BGB|c(3)cBc AFD|DGG FAA|GBB ABc|
d(3)dcd BGB|c(3)cBc AFD|DGG FGA|BGG G2:|
d|gfe d(3)dcd|ecA Bcd|eAA eAA|fag fed|
gfe d(3)dcd|eAA Bcd|efg eag|f(3)fef g2||

